X:36
T:Jigs simple chords 37
M:3/4
L:1/8
K:Em
E[AA,CE] BA c2 | d[eA,CE] dc B2 | A[GG,B,D] AG B2 | c[dG,B,D] ge dB | G[AA,CE] BA c2 |
d[eA,CE] dc Bc | d[e2A,2C2E2]A AB | ^G[A5A,5C5E5] | E[AA,CE] BA c2 |
d[eA,CE] dc B2 | A[GG,B,D] AG B2 | c[dG,B,D] ge dB | G[AA,CE] BA c2 |
d[eA,CE] dc Bc | d[e2A,2C2E2]A AB | ^G[A5A,5C5E5] | B[c2C,2E,2G,2]e g2 |
a[gC,E,G,] ec ge | c[G2G,2B,2D2]B d2 | e[dG,B,D] ge dB | G[c2C,2E,2G,2]e g2 |
a[gC,E,G,] ec de | ^g[a2A,2C2E2]A AB | ^G[A5A,5C5E5] | B[c2C,2E,2G,2]e g2 |
a[gC,E,G,] ec ge | c[G2G,2B,2D2]B d2 | e[dG,B,D] ge dB | G[c2C,2E,2G,2]e g2 |
a[gC,E,G,] ec de | ^g[a2A,2C2E2]A AB | ^G[A5A,5C5E5] |


